X: 40094
T: Thursday Night In The Caley
R: jig
M: 6/8
K: Cmajor
G2F|:E2c cdB|c2E ~E2D|E2c cde|~c3 c2B|
ABA ~a2g|aee e2g|aba age|ged cAG|
E2c cdB|c2E ~E2D|E2c cde|~c3 ceg|
age ~g2e|dcA cde|dcA GED|C3 G2F:|
|:E2c cGF|E2c d2c|E2c dcA|~c3 c2B|
ABA ~a2g|aee e2g|aba age|ged cAG|
E2c cGF|E2c d2c|E2c dcA|~c3 ceg|
age ~g2e|dcA cde|dcA GED|C3 G2F:|

